X:274
T:Scottiche  Bretagne
R:scottiche
O:France
M:2/2
L:1/8
Q:1/4=160
K:C
cded cded|c2e2g2e2|dcBc d2d2|efed e2c2|cded cded|c2e2g2e2|dcBc d2d2|efed c4:|
|:e2e2g2fe|d2d2g2e2|dcBc d2d2|efed e2c2|e2e2g2fe|d2d2g2e2|dcBc d2d2|efed c4:||
